src/components/Home/Core/assets/core-cdn.svg

<svg width="99" height="72" viewBox="0 0 99 72" fill="none" xmlns="http://www.w3.org/2000/svg">
<path d="M55.8914 52.1897H0.46875V0H55.8914V52.1897Z" fill="white"/>
<path d="M55.8914 11.0845H0.46875V0H55.8914V11.0845Z" fill="#B69538"/>
<path d="M55.8914 52.1897H0.46875V0H55.8914V52.1897ZM3.19613 49.4498H53.164V2.73992H3.19613V49.4498Z" fill="#4C4C4C"/>
<path d="M54.507 9.69824H1.85547V12.4694H54.507V9.69824Z" fill="#4C4C4C"/>
<path d="M14.9469 8.02295C15.9102 7.79548 16.5067 6.83015 16.2793 5.86681C16.0518 4.90348 15.0865 4.30695 14.1232 4.53442C13.1598 4.76189 12.5633 5.72722 12.7908 6.69055C13.0182 7.65389 13.9836 8.25042 14.9469 8.02295Z" fill="#4C4C4C"/>
<path d="M9.12658 8.02291C10.0899 7.79545 10.6864 6.83012 10.459 5.8668C10.2315 4.90348 9.26617 4.30696 8.30284 4.53442C7.33952 4.76189 6.74299 5.72721 6.97046 6.69053C7.19793 7.65385 8.16325 8.25038 9.12658 8.02291Z" fill="#4C4C4C"/>
<path d="M20.7633 8.02291C21.7266 7.79545 22.3232 6.83012 22.0957 5.8668C21.8682 4.90348 20.9029 4.30696 19.9396 4.53442C18.9762 4.76189 18.3797 5.72721 18.6072 6.69053C18.8346 7.65385 19.8 8.25038 20.7633 8.02291Z" fill="#4C4C4C"/>
<path d="M37.4157 14.3173L98.9531 14.3173L98.9531 72L37.4157 72L37.4157 14.3173Z" fill="white"/>
<path d="M37.4157 59.5891L98.9531 59.5891L98.9531 72L37.4157 72L37.4157 59.5891Z" fill="#B69538"/>
<path d="M37.4157 14.3173L98.9531 14.3173L98.9531 72L37.4157 72L37.4157 14.3173ZM95.9248 17.3456L40.444 17.3456L40.444 68.9717L95.9248 68.9717L95.9248 17.3456Z" fill="#4C4C4C"/>
<path d="M38.9283 61.1035L97.4375 61.1035L97.4375 58.0752L38.9283 58.0752L38.9283 61.1035Z" fill="#4C4C4C"/>
<path d="M89.6042 63.7363H82.6758V66.7646H89.6042V63.7363Z" fill="#4C4C4C"/>
<path d="M44.5754 35.6353H26.8069C24.3678 35.6353 22.3906 33.658 22.3906 31.219C22.3906 28.78 24.3678 26.8027 26.8069 26.8027H44.5754V35.6353Z" fill="white"/>
<path d="M61.037 29.7061H25.3359V32.7344H61.037V29.7061Z" fill="#4C4C4C"/>
<path d="M53.1295 41.2695L50.9883 39.1283L58.8959 31.2207L50.9883 23.3131L53.1295 21.1719L63.1784 31.2207L53.1295 41.2695Z" fill="#4C4C4C"/>
<path d="M32.209 41.2695L22.1602 31.2207L32.209 21.1719L34.3503 23.3131L26.4427 31.2207L34.3503 39.1283L32.209 41.2695Z" fill="#4C4C4C"/>
</svg>

<svg width="99" height="72" fill="none" xmlns="http://www.w3.org/2000/svg"><path d="M55.891 52.19H.47V0H55.89v52.19z" fill="#fff"/><path d="M55.891 11.085H.47V0H55.89v11.085z" fill="#B69538"/><path d="M55.891 52.19H.47V0H55.89v52.19zM3.196 49.45h49.968V2.74H3.196v46.71z" fill="#4C4C4C"/><path d="M54.507 9.698H1.855v2.771h52.652V9.7zm-39.56-1.675a1.792 1.792 0 1 0-.824-3.489 1.792 1.792 0 0 0 .824 3.489zm-5.82 0a1.792 1.792 0 1 0-.824-3.489 1.792 1.792 0 0 0 .824 3.489zm11.636 0a1.792 1.792 0 1 0-.823-3.489 1.792 1.792 0 0 0 .823 3.489z" fill="#4C4C4C"/><path d="M37.416 14.317h61.537V72H37.416V14.317z" fill="#fff"/><path d="M37.416 59.59h61.537V72H37.416V59.59z" fill="#B69538"/><path d="M37.416 14.317h61.537V72H37.416V14.317zm58.509 3.029H40.444v51.626h55.48V17.346z" fill="#4C4C4C"/><path d="M38.928 61.103h58.51v-3.028h-58.51v3.028zm50.676 2.633h-6.928v3.029h6.928v-3.029z" fill="#4C4C4C"/><path d="M44.575 35.635H26.807a4.416 4.416 0 0 1 0-8.832h17.768v8.832z" fill="#fff"/><path d="M61.037 29.706H25.336v3.028h35.701v-3.028z" fill="#4C4C4C"/><path d="M53.13 41.27l-2.142-2.142 7.908-7.907-7.908-7.908 2.142-2.141L63.178 31.22 53.13 41.27zm-20.921 0L22.16 31.22 32.21 21.173l2.141 2.141-7.907 7.908 7.907 7.907-2.141 2.142z" fill="#4C4C4C"/></svg>
